epam-assets/icon-sources/18/database-lock.svg

<svg width="18" height="18" viewBox="0 0 18 18" fill="none" xmlns="http://www.w3.org/2000/svg">
<g id="18/database-lock">
<g id="icon">
<path d="M2.25 8.25C2.25 9.9075 4.935 11.25 8.25 11.25C9.03983 11.25 9.7939 11.1738 10.4844 11.0353C11.2557 9.85927 12.7539 9.06243 14.25 9V6C14.25 7.6575 11.565 9 8.25 9C4.935 9 2.25 7.6575 2.25 6V8.25Z" fill="#6C6F80"/>
<path d="M9.75 13.5C9.75 13.2076 9.77789 12.9217 9.83115 12.6448C9.32744 12.7134 8.79731 12.75 8.25 12.75C4.935 12.75 2.25 11.4075 2.25 9.75V12C2.25 13.6575 4.935 15 8.25 15C8.84573 15 9.42112 14.9566 9.96423 14.8759C9.82512 14.4422 9.75 13.9799 9.75 13.5Z" fill="#6C6F80"/>
<path d="M14.25 4.5C14.25 2.8425 11.565 1.5 8.25 1.5C4.935 1.5 2.25 2.8425 2.25 4.5C2.25 6.1575 4.935 7.5 8.25 7.5C11.565 7.5 14.25 6.1575 14.25 4.5Z" fill="#6C6F80"/>
<path fill-rule="evenodd" clip-rule="evenodd" d="M15.75 12C15.75 11.1716 15.0784 10.5 14.25 10.5C13.4216 10.5 12.75 11.1716 12.75 12V12.75H12.5625C12.2531 12.75 12 12.9884 12 13.2857V15.9643C12 16.2602 12.2518 16.5 12.5625 16.5H15.9375C16.2482 16.5 16.5 16.2602 16.5 15.9643V13.2857C16.5 12.9898 16.2482 12.75 15.9375 12.75H15.75V12ZM13.5 12.75V12C13.5 11.5858 13.8358 11.25 14.25 11.25C14.6642 11.25 15 11.5858 15 12V12.75H13.5Z" fill="#6C6F80"/>
</g>
</g>
</svg>

<svg xmlns="http://www.w3.org/2000/svg" width="18" height="18" fill="none" viewBox="0 0 18 18">
  <path fill="#6C6F80" d="M2.25 8.25c0 1.658 2.685 3 6 3 .79 0 1.544-.076 2.234-.215.772-1.176 2.27-1.973 3.766-2.035V6c0 1.657-2.685 3-6 3s-6-1.343-6-3v2.25Z"/>
  <path fill="#6C6F80" d="M9.75 13.5c0-.292.028-.578.081-.855-.504.068-1.034.105-1.581.105-3.315 0-6-1.342-6-3V12c0 1.658 2.685 3 6 3 .596 0 1.171-.043 1.714-.124A4.497 4.497 0 0 1 9.75 13.5Zm4.5-9c0-1.658-2.685-3-6-3s-6 1.342-6 3c0 1.657 2.685 3 6 3s6-1.343 6-3Z"/>
  <path fill="#6C6F80" fill-rule="evenodd" d="M15.75 12a1.5 1.5 0 0 0-3 0v.75h-.188a.55.55 0 0 0-.562.536v2.678a.55.55 0 0 0 .563.536h3.374a.55.55 0 0 0 .563-.536v-2.678a.55.55 0 0 0-.563-.536h-.187V12Zm-2.25.75V12a.75.75 0 0 1 1.5 0v.75h-1.5Z" clip-rule="evenodd"/>
</svg>
